Newaita-dark/apps/22/media-optical-audio-new.svg

<svg height="22" viewBox="0 0 22 22" width="22" xmlns="http://www.w3.org/2000/svg" xmlns:xlink="http://www.w3.org/1999/xlink"><linearGradient id="a"><stop offset="0" stop-opacity=".313726"/><stop offset=".222222" stop-opacity=".27451"/><stop offset="1" stop-opacity="0"/></linearGradient><radialGradient id="b" cx="450.908936" cy="189.579361" gradientTransform="matrix(.00000012 -.0537161 -.0966889 -.00000007 30.609667 43.721789)" gradientUnits="userSpaceOnUse" r="21.166656" xlink:href="#a"/><radialGradient id="c" cx="450.908936" cy="189.579361" gradientTransform="matrix(-.00000012 .0537161 .0966889 .00000007 -8.779457 -5.175144)" gradientUnits="userSpaceOnUse" r="21.166656" xlink:href="#a"/><radialGradient id="d" cx="450.908936" cy="189.579361" gradientTransform="matrix(-.00000012 -.0537161 .0966889 -.00000007 -8.779457 43.721789)" gradientUnits="userSpaceOnUse" r="21.166656" xlink:href="#a"/><radialGradient id="e" cx="450.908936" cy="189.579361" gradientTransform="matrix(.00000012 .0537161 -.0966889 .00000007 30.609666 -5.175144)" gradientUnits="userSpaceOnUse" r="21.166656" xlink:href="#a"/><linearGradient id="f" gradientTransform="matrix(.00918504 0 0 .0429729 8.569953 9.239164)" gradientUnits="userSpaceOnUse" x1="255.323059" x2="255.323044" y1="233.5" y2="254.666656"><stop offset="0" stop-opacity=".27451"/><stop offset="1" stop-opacity="0"/></linearGradient><linearGradient id="g" gradientUnits="userSpaceOnUse" x1="10.9151166" x2="10.9151166" y1="1.99106697081" y2="19.27333515"><stop offset="0" stop-color="#e0e0e0"/><stop offset="1" stop-color="#bdbdbd"/></linearGradient><linearGradient id="h" gradientUnits="userSpaceOnUse" x1="10.915104" x2="10.915104" y1="19.27332401286" y2="14.95276201286"><stop offset="0" stop-color="#26c6da"/><stop offset="1" stop-color="#4dd0e1"/></linearGradient><linearGradient id="i" gradientUnits="userSpaceOnUse" x1="960.000112" x2="960.000112" y1="1255.11822698163" y2="615.118112"><stop offset="0" stop-color="#f5f5f5"/><stop offset="1" stop-color="#e0e0e0"/></linearGradient><filter id="j" height="100%" width="100%" x="0%" y="0%"><feColorMatrix in="SourceGraphic" type="matrix" values="0 0 0 0 1 0 0 0 0 1 0 0 0 0 1 0 0 0 1 0"/></filter><mask id="k"><g filter="url(#j)"><path d="m0 0h22v22h-22z" fill-opacity=".99"/></g></mask><clipPath id="l"><path d="m0 0h22v22h-22z"/></clipPath><mask id="m"><g filter="url(#j)"><path d="m0 0h22v22h-22z" fill-opacity=".99"/></g></mask><clipPath id="n"><path d="m0 0h22v22h-22z"/></clipPath><mask id="o"><g filter="url(#j)"><path d="m0 0h22v22h-22z" fill-opacity=".99"/></g></mask><clipPath id="p"><path d="m0 0h22v22h-22z"/></clipPath><mask id="q"><g filter="url(#j)"><path d="m0 0h22v22h-22z" fill-opacity=".99"/></g></mask><clipPath id="r"><path d="m0 0h22v22h-22z"/></clipPath><path d="m12.507812 19.273438h1.816407v-.910157h-1.816407zm0 0" fill="url(#b)"/><path d="m9.324219 19.273438h-1.820313v.910156h1.820313zm0 0" fill="url(#c)"/><path d="m9.324219 19.273438h-1.820313v-.910157h1.820313zm0 0" fill="url(#d)"/><path d="m12.507812 19.273438h1.816407v.910156h-1.816407zm0 0" fill="url(#e)"/><path d="m9.324219 19.046875h3.183593v1.136719h-3.183593zm0 0" fill="url(#f)"/><path d="m10.914062 1.992188c-4.785156 0-8.640624 3.851562-8.640624 8.640624 0 4.785157 3.855468 8.640626 8.640624 8.640626 4.789063 0 8.640626-3.855469 8.640626-8.640626 0-4.789062-3.851563-8.640624-8.640626-8.640624zm0 6.820312c1.007813 0 1.820313.8125 1.820313 1.820312 0 1.007813-.8125 1.820313-1.820313 1.820313-1.007812 0-1.816406-.8125-1.816406-1.820313 0-1.007812.808594-1.820312 1.816406-1.820312zm0 0" fill="url(#g)"/><path d="m10.914062 15.519531c-.140624 0-.285156.117188-.453124.34375-.570313.796875-.929688 1.253907-.910157 1.816407v1.488281c.445313.070312.898438.105469 1.363281.105469.464844 0 .921876-.035157 1.367188-.105469v-1.488281c0-.566407-.34375-1.019532-.910156-1.816407-.171875-.226562-.3125-.34375-.457032-.34375zm0 0" fill="url(#h)"/><path d="m10.914062 19.273438c-4.785156 0-8.640624-3.855469-8.640624-8.640626 0-.027343 0-.058593 0-.085937.046874 4.75 3.882812 8.558594 8.640624 8.558594 4.761719 0 8.597657-3.808594 8.640626-8.558594v.085937c0 4.785157-3.851563 8.640626-8.640626 8.640626zm0 0" fill-opacity=".196078"/><path d="m10.914062 1.992188c-4.785156 0-8.640624 3.851562-8.640624 8.640624v.085938c.046874-4.75 3.882812-8.558594 8.640624-8.558594 4.761719 0 8.597657 3.808594 8.640626 8.558594 0-.03125 0-.058594 0-.085938 0-4.789062-3.851563-8.640624-8.640626-8.640624zm0 0" fill="#fff" fill-opacity=".588235"/><path d="m10.914062 1.925781c-4.820312 0-8.703124 3.882813-8.703124 8.707031 0 4.820313 3.882812 8.703126 8.703124 8.703126 4.824219 0 8.707032-3.882813 8.707032-8.703126 0-4.824218-3.882813-8.707031-8.707032-8.707031zm0 .128907c4.753907 0 8.578126 3.824218 8.578126 8.578124 0 4.75-3.824219 8.574219-8.578126 8.574219-4.75 0-8.574218-3.824219-8.574218-8.574219 0-4.753906 3.824218-8.578124 8.574218-8.578124zm0 0" fill="#212121"/><path d="m5.105469 4.820312c-.488281.496094-.90625 1.050782-1.253907 1.652344-.347656.597656-.617187 1.238282-.800781 1.90625l1.839844.492188c.28125-1.019532.820313-1.949219 1.5625-2.703125zm1.6875 1.691407c-.679688.691406-1.175781 1.550781-1.433594 2.488281l3.921875 1.050781c.074219-.25.207031-.476562.382812-.667969zm5.773437 4.542969c-.039062.125-.089844.246093-.15625.355468-.0625.113282-.140625.21875-.230468.3125l2.875 2.875c.679687-.695312 1.171874-1.550781 1.433593-2.492187zm4.390625 1.179687c-.285156 1.019531-.820312 1.949219-1.5625 2.703125l1.347657 1.347656c.484374-.496094.90625-1.050781 1.25-1.652344.347656-.597656.617187-1.238281.804687-1.90625zm0 0" fill="#fff" fill-opacity=".588235"/><path d="m959.908384 614.973517c-177.277282 0-319.854941 142.92122-319.854941 320.198502s142.577659 319.854941 319.854941 319.854941 320.198501-142.577659 320.198501-319.854941-142.921219-320.198502-320.198501-320.198502zm0 160.099251c88.638641 0 160.099251 71.46061 160.099251 160.099251s-71.46061 160.099251-160.099251 160.099251-159.75569-71.46061-159.75569-160.099251 71.117049-160.099251 159.75569-160.099251zm0 0" fill="url(#i)" stroke="#333" stroke-linecap="round" stroke-width="11.338583" transform="scale(.0113699)"/><path d="m10.914062 15.519531c-.140624 0-.285156.117188-.453124.34375-.570313.796875-.929688 1.253907-.910157 1.816407v.257812c.015625-.527344.371094-.980469.910157-1.734375.167968-.226563.3125-.339844.453124-.339844.144532 0 .285157.113281.457032.339844.566406.796875.910156 1.25.910156 1.820313v-.34375c0-.566407-.34375-1.023438-.910156-1.816407-.171875-.226562-.3125-.34375-.457032-.34375zm0 0" fill="#fff" fill-opacity=".392157"/><path d="m959.908384 1364.96636c-12.368183 0-25.079926 10.306818-39.853033 30.233335-50.159851 70.086367-81.767428 110.28296-80.049625 159.75569v130.896598c39.165911 6.184091 79.018944 9.276136 119.902658 9.276136s81.080307-3.092045 120.246218-9.276136v-130.896598c0-49.816291-30.233335-89.669323-80.049625-159.75569-15.116668-19.926517-27.48485-30.233335-40.196593-30.233335zm0 0" fill="none" stroke="#212121" stroke-linecap="square" stroke-linejoin="bevel" stroke-width="11.338583" transform="scale(.0113699)"/><path d="m9.550781 17.59375v.085938zm0 1.226562v.347657c.445313.070312.898438.105469 1.363281.105469.464844 0 .921876-.035157 1.367188-.105469v-.347657c-.445312.066407-.902344.105469-1.367188.105469-.464843 0-.917968-.039062-1.363281-.105469zm0 0" fill-opacity=".235294"/><g clip-path="url(#l)" mask="url(#k)"><path d="m10.914062 17c.378907 0 .683594.304688.683594.679688 0 .378906-.304687.683593-.683594.683593-.375 0-.679687-.304687-.679687-.683593 0-.375.304687-.679688.679687-.679688zm0 0" fill-opacity=".117647"/></g><g clip-path="url(#n)" mask="url(#m)"><path d="m10.914062 17c-.375 0-.679687.304688-.679687.679688 0 .039062 0 .078124.007813.117187.054687-.324219.332031-.570313.671874-.570313.339844 0 .621094.246094.671876.570313.007812-.039063.011718-.078125.011718-.117187 0-.375-.304687-.679688-.683594-.679688zm0 0" fill-opacity=".235294"/></g><g clip-path="url(#p)" mask="url(#o)"><path d="m10.914062 18.589844c-.375 0-.679687-.304688-.679687-.679688 0-.039062 0-.078125.007813-.113281.054687.320313.332031.566406.671874.566406.339844 0 .621094-.246093.671876-.566406.007812.035156.011718.074219.011718.113281 0 .375-.304687.679688-.683594.679688zm0 0" fill="#fff" fill-opacity=".392157"/></g><g clip-path="url(#r)" mask="url(#q)"><path d="m253.975747 180.598586c8.817339 0 15.907571 7.090232 15.907571 15.816671 0 8.81734-7.090232 15.907572-15.907571 15.907572-8.72644 0-15.816672-7.090232-15.816672-15.907572 0-8.726439 7.090232-15.816671 15.816672-15.816671zm0 0" fill="none" stroke="#212121" stroke-linecap="round" stroke-linejoin="round" stroke-width="3" transform="matrix(.0429729 0 0 .0429729 0 9.239163)"/></g></svg>

<?xml version="1.0" encoding="UTF-8"?>
<svg xmlns="http://www.w3.org/2000/svg" xmlns:xlink="http://www.w3.org/1999/xlink" width="22px" height="22px" viewBox="0 0 22 22" version="1.1">
<defs>
<radialGradient id="radial0" gradientUnits="userSpaceOnUse" cx="450.908936" cy="189.579361" fx="450.908936" fy="189.579361" r="21.166656" gradientTransform="matrix(0.000000119742,-0.0537161,-0.0966889,-0.0000000698078,30.609667,43.721789)">
<stop offset="0" style="stop-color:rgb(0%,0%,0%);stop-opacity:0.313726;"/>
<stop offset="0.222222" style="stop-color:rgb(0%,0%,0%);stop-opacity:0.27451;"/>
<stop offset="1" style="stop-color:rgb(0%,0%,0%);stop-opacity:0;"/>
</radialGradient>
<radialGradient id="radial1" gradientUnits="userSpaceOnUse" cx="450.908936" cy="189.579361" fx="450.908936" fy="189.579361" r="21.166656" gradientTransform="matrix(-0.000000119742,0.0537161,0.0966889,0.0000000698078,-8.779457,-5.175144)">
<stop offset="0" style="stop-color:rgb(0%,0%,0%);stop-opacity:0.313726;"/>
<stop offset="0.222222" style="stop-color:rgb(0%,0%,0%);stop-opacity:0.27451;"/>
<stop offset="1" style="stop-color:rgb(0%,0%,0%);stop-opacity:0;"/>
</radialGradient>
<radialGradient id="radial2" gradientUnits="userSpaceOnUse" cx="450.908936" cy="189.579361" fx="450.908936" fy="189.579361" r="21.166656" gradientTransform="matrix(-0.000000119742,-0.0537161,0.0966889,-0.0000000698078,-8.779457,43.721789)">
<stop offset="0" style="stop-color:rgb(0%,0%,0%);stop-opacity:0.313726;"/>
<stop offset="0.222222" style="stop-color:rgb(0%,0%,0%);stop-opacity:0.27451;"/>
<stop offset="1" style="stop-color:rgb(0%,0%,0%);stop-opacity:0;"/>
</radialGradient>
<radialGradient id="radial3" gradientUnits="userSpaceOnUse" cx="450.908936" cy="189.579361" fx="450.908936" fy="189.579361" r="21.166656" gradientTransform="matrix(0.000000119742,0.0537161,-0.0966889,0.0000000698078,30.609666,-5.175144)">
<stop offset="0" style="stop-color:rgb(0%,0%,0%);stop-opacity:0.313726;"/>
<stop offset="0.222222" style="stop-color:rgb(0%,0%,0%);stop-opacity:0.27451;"/>
<stop offset="1" style="stop-color:rgb(0%,0%,0%);stop-opacity:0;"/>
</radialGradient>
<linearGradient id="linear0" gradientUnits="userSpaceOnUse" x1="255.323059" y1="233.5" x2="255.323044" y2="254.666656" gradientTransform="matrix(0.00918504,0,0,0.0429729,8.569953,9.239164)">
<stop offset="0" style="stop-color:rgb(0%,0%,0%);stop-opacity:0.27451;"/>
<stop offset="1" style="stop-color:rgb(0%,0%,0%);stop-opacity:0;"/>
</linearGradient>
<linearGradient id="linear1" gradientUnits="userSpaceOnUse" x1="254" y1="-168.666672" x2="254" y2="233.5" gradientTransform="matrix(0.0429729,0,0,0.0429729,0,9.239163)">
<stop offset="0" style="stop-color:rgb(87.843138%,87.843138%,87.843138%);stop-opacity:1;"/>
<stop offset="1" style="stop-color:rgb(74.117649%,74.117649%,74.117649%);stop-opacity:1;"/>
</linearGradient>
<linearGradient id="linear2" gradientUnits="userSpaceOnUse" x1="960" y1="1695.118164" x2="960" y2="1315.118164" gradientTransform="matrix(0.0113699,0,0,0.0113699,0,0)">
<stop offset="0" style="stop-color:rgb(14.901961%,77.64706%,85.490197%);stop-opacity:1;"/>
<stop offset="1" style="stop-color:rgb(30.19608%,81.568629%,88.235295%);stop-opacity:1;"/>
</linearGradient>
<linearGradient id="linear3" gradientUnits="userSpaceOnUse" x1="254" y1="117.083344" x2="254" y2="-52.25" gradientTransform="matrix(3.779528,0,0,3.779528,0,812.59845)">
<stop offset="0" style="stop-color:rgb(96.078432%,96.078432%,96.078432%);stop-opacity:1;"/>
<stop offset="1" style="stop-color:rgb(87.843138%,87.843138%,87.843138%);stop-opacity:1;"/>
</linearGradient>
<filter id="alpha" filterUnits="objectBoundingBox" x="0%" y="0%" width="100%" height="100%">
  <feColorMatrix type="matrix" in="SourceGraphic" values="0 0 0 0 1 0 0 0 0 1 0 0 0 0 1 0 0 0 1 0"/>
</filter>
<mask id="mask0">
  <g filter="url(#alpha)">
<rect x="0" y="0" width="22" height="22" style="fill:rgb(0%,0%,0%);fill-opacity:0.99;stroke:none;"/>
  </g>
</mask>
<clipPath id="clip1">
  <rect x="0" y="0" width="22" height="22"/>
</clipPath>
<g id="surface5" clip-path="url(#clip1)">
<path style=" stroke:none;fill-rule:nonzero;fill:rgb(0%,0%,0%);fill-opacity:0.117647;" d="M 10.914062 17 C 11.292969 17 11.597656 17.304688 11.597656 17.679688 C 11.597656 18.058594 11.292969 18.363281 10.914062 18.363281 C 10.539062 18.363281 10.234375 18.058594 10.234375 17.679688 C 10.234375 17.304688 10.539062 17 10.914062 17 Z M 10.914062 17 "/>
</g>
<mask id="mask1">
  <g filter="url(#alpha)">
<rect x="0" y="0" width="22" height="22" style="fill:rgb(0%,0%,0%);fill-opacity:0.99;stroke:none;"/>
  </g>
</mask>
<clipPath id="clip2">
  <rect x="0" y="0" width="22" height="22"/>
</clipPath>
<g id="surface8" clip-path="url(#clip2)">
<path style=" stroke:none;fill-rule:nonzero;fill:rgb(0%,0%,0%);fill-opacity:0.235294;" d="M 10.914062 17 C 10.539062 17 10.234375 17.304688 10.234375 17.679688 C 10.234375 17.71875 10.234375 17.757812 10.242188 17.796875 C 10.296875 17.472656 10.574219 17.226562 10.914062 17.226562 C 11.253906 17.226562 11.535156 17.472656 11.585938 17.796875 C 11.59375 17.757812 11.597656 17.71875 11.597656 17.679688 C 11.597656 17.304688 11.292969 17 10.914062 17 Z M 10.914062 17 "/>
</g>
<mask id="mask2">
  <g filter="url(#alpha)">
<rect x="0" y="0" width="22" height="22" style="fill:rgb(0%,0%,0%);fill-opacity:0.99;stroke:none;"/>
  </g>
</mask>
<clipPath id="clip3">
  <rect x="0" y="0" width="22" height="22"/>
</clipPath>
<g id="surface11" clip-path="url(#clip3)">
<path style=" stroke:none;fill-rule:nonzero;fill:rgb(100%,100%,100%);fill-opacity:0.392157;" d="M 10.914062 18.589844 C 10.539062 18.589844 10.234375 18.285156 10.234375 17.910156 C 10.234375 17.871094 10.234375 17.832031 10.242188 17.796875 C 10.296875 18.117188 10.574219 18.363281 10.914062 18.363281 C 11.253906 18.363281 11.535156 18.117188 11.585938 17.796875 C 11.59375 17.832031 11.597656 17.871094 11.597656 17.910156 C 11.597656 18.285156 11.292969 18.589844 10.914062 18.589844 Z M 10.914062 18.589844 "/>
</g>
<mask id="mask3">
  <g filter="url(#alpha)">
<rect x="0" y="0" width="22" height="22" style="fill:rgb(0%,0%,0%);fill-opacity:0.99;stroke:none;"/>
  </g>
</mask>
<clipPath id="clip4">
  <rect x="0" y="0" width="22" height="22"/>
</clipPath>
<g id="surface14" clip-path="url(#clip4)">
<path style="fill:none;stroke-width:3;stroke-linecap:round;stroke-linejoin:round;stroke:rgb(12.941177%,12.941177%,12.941177%);stroke-opacity:1;stroke-miterlimit:4;" d="M 253.975747 180.598586 C 262.793086 180.598586 269.883318 187.688818 269.883318 196.415257 C 269.883318 205.232597 262.793086 212.322829 253.975747 212.322829 C 245.249307 212.322829 238.159075 205.232597 238.159075 196.415257 C 238.159075 187.688818 245.249307 180.598586 253.975747 180.598586 Z M 253.975747 180.598586 " transform="matrix(0.0429729,0,0,0.0429729,0,9.239163)"/>
</g>
</defs>
<g id="surface1">
<path style=" stroke:none;fill-rule:nonzero;fill:url(#radial0);" d="M 12.507812 19.273438 L 14.324219 19.273438 L 14.324219 18.363281 L 12.507812 18.363281 Z M 12.507812 19.273438 "/>
<path style=" stroke:none;fill-rule:nonzero;fill:url(#radial1);" d="M 9.324219 19.273438 L 7.503906 19.273438 L 7.503906 20.183594 L 9.324219 20.183594 Z M 9.324219 19.273438 "/>
<path style=" stroke:none;fill-rule:nonzero;fill:url(#radial2);" d="M 9.324219 19.273438 L 7.503906 19.273438 L 7.503906 18.363281 L 9.324219 18.363281 Z M 9.324219 19.273438 "/>
<path style=" stroke:none;fill-rule:nonzero;fill:url(#radial3);" d="M 12.507812 19.273438 L 14.324219 19.273438 L 14.324219 20.183594 L 12.507812 20.183594 Z M 12.507812 19.273438 "/>
<path style=" stroke:none;fill-rule:nonzero;fill:url(#linear0);" d="M 9.324219 19.046875 L 12.507812 19.046875 L 12.507812 20.183594 L 9.324219 20.183594 Z M 9.324219 19.046875 "/>
<path style=" stroke:none;fill-rule:nonzero;fill:url(#linear1);" d="M 10.914062 1.992188 C 6.128906 1.992188 2.273438 5.84375 2.273438 10.632812 C 2.273438 15.417969 6.128906 19.273438 10.914062 19.273438 C 15.703125 19.273438 19.554688 15.417969 19.554688 10.632812 C 19.554688 5.84375 15.703125 1.992188 10.914062 1.992188 Z M 10.914062 8.8125 C 11.921875 8.8125 12.734375 9.625 12.734375 10.632812 C 12.734375 11.640625 11.921875 12.453125 10.914062 12.453125 C 9.90625 12.453125 9.097656 11.640625 9.097656 10.632812 C 9.097656 9.625 9.90625 8.8125 10.914062 8.8125 Z M 10.914062 8.8125 "/>
<path style=" stroke:none;fill-rule:nonzero;fill:url(#linear2);" d="M 10.914062 15.519531 C 10.773438 15.519531 10.628906 15.636719 10.460938 15.863281 C 9.890625 16.660156 9.53125 17.117188 9.550781 17.679688 L 9.550781 19.167969 C 9.996094 19.238281 10.449219 19.273438 10.914062 19.273438 C 11.378906 19.273438 11.835938 19.238281 12.28125 19.167969 L 12.28125 17.679688 C 12.28125 17.113281 11.9375 16.660156 11.371094 15.863281 C 11.199219 15.636719 11.058594 15.519531 10.914062 15.519531 Z M 10.914062 15.519531 "/>
<path style=" stroke:none;fill-rule:nonzero;fill:rgb(0%,0%,0%);fill-opacity:0.196078;" d="M 10.914062 19.273438 C 6.128906 19.273438 2.273438 15.417969 2.273438 10.632812 C 2.273438 10.605469 2.273438 10.574219 2.273438 10.546875 C 2.320312 15.296875 6.15625 19.105469 10.914062 19.105469 C 15.675781 19.105469 19.511719 15.296875 19.554688 10.546875 C 19.554688 10.574219 19.554688 10.605469 19.554688 10.632812 C 19.554688 15.417969 15.703125 19.273438 10.914062 19.273438 Z M 10.914062 19.273438 "/>
<path style=" stroke:none;fill-rule:nonzero;fill:rgb(100%,100%,100%);fill-opacity:0.588235;" d="M 10.914062 1.992188 C 6.128906 1.992188 2.273438 5.84375 2.273438 10.632812 C 2.273438 10.660156 2.273438 10.6875 2.273438 10.71875 C 2.320312 5.96875 6.15625 2.160156 10.914062 2.160156 C 15.675781 2.160156 19.511719 5.96875 19.554688 10.71875 C 19.554688 10.6875 19.554688 10.660156 19.554688 10.632812 C 19.554688 5.84375 15.703125 1.992188 10.914062 1.992188 Z M 10.914062 1.992188 "/>
<path style=" stroke:none;fill-rule:nonzero;fill:rgb(12.941177%,12.941177%,12.941177%);fill-opacity:1;" d="M 10.914062 1.925781 C 6.09375 1.925781 2.210938 5.808594 2.210938 10.632812 C 2.210938 15.453125 6.09375 19.335938 10.914062 19.335938 C 15.738281 19.335938 19.621094 15.453125 19.621094 10.632812 C 19.621094 5.808594 15.738281 1.925781 10.914062 1.925781 Z M 10.914062 2.054688 C 15.667969 2.054688 19.492188 5.878906 19.492188 10.632812 C 19.492188 15.382812 15.667969 19.207031 10.914062 19.207031 C 6.164062 19.207031 2.339844 15.382812 2.339844 10.632812 C 2.339844 5.878906 6.164062 2.054688 10.914062 2.054688 Z M 10.914062 2.054688 "/>
<path style=" stroke:none;fill-rule:nonzero;fill:rgb(100%,100%,100%);fill-opacity:0.588235;" d="M 5.105469 4.820312 C 4.617188 5.316406 4.199219 5.871094 3.851562 6.472656 C 3.503906 7.070312 3.234375 7.710938 3.050781 8.378906 L 4.890625 8.871094 C 5.171875 7.851562 5.710938 6.921875 6.453125 6.167969 Z M 6.792969 6.511719 C 6.113281 7.203125 5.617188 8.0625 5.359375 9 L 9.28125 10.050781 C 9.355469 9.800781 9.488281 9.574219 9.664062 9.382812 Z M 12.566406 11.054688 C 12.527344 11.179688 12.476562 11.300781 12.410156 11.410156 C 12.347656 11.523438 12.269531 11.628906 12.179688 11.722656 L 15.054688 14.597656 C 15.734375 13.902344 16.226562 13.046875 16.488281 12.105469 Z M 16.957031 12.234375 C 16.671875 13.253906 16.136719 14.183594 15.394531 14.9375 L 16.742188 16.285156 C 17.226562 15.789062 17.648438 15.234375 17.992188 14.632812 C 18.339844 14.035156 18.609375 13.394531 18.796875 12.726562 Z M 16.957031 12.234375 "/>
<path style="fill-rule:nonzero;fill:url(#linear3);stroke-width:11.338583;stroke-linecap:round;stroke-linejoin:miter;stroke:rgb(20%,20%,20%);stroke-opacity:1;stroke-miterlimit:4;" d="M 959.908384 614.973517 C 782.631102 614.973517 640.053443 757.894737 640.053443 935.172019 C 640.053443 1112.449301 782.631102 1255.02696 959.908384 1255.02696 C 1137.185666 1255.02696 1280.106885 1112.449301 1280.106885 935.172019 C 1280.106885 757.894737 1137.185666 614.973517 959.908384 614.973517 Z M 959.908384 775.072768 C 1048.547025 775.072768 1120.007635 846.533378 1120.007635 935.172019 C 1120.007635 1023.81066 1048.547025 1095.27127 959.908384 1095.27127 C 871.269743 1095.27127 800.152694 1023.81066 800.152694 935.172019 C 800.152694 846.533378 871.269743 775.072768 959.908384 775.072768 Z M 959.908384 775.072768 " transform="matrix(0.0113699,0,0,0.0113699,0,0)"/>
<path style=" stroke:none;fill-rule:nonzero;fill:rgb(100%,100%,100%);fill-opacity:0.392157;" d="M 10.914062 15.519531 C 10.773438 15.519531 10.628906 15.636719 10.460938 15.863281 C 9.890625 16.660156 9.53125 17.117188 9.550781 17.679688 L 9.550781 17.9375 C 9.566406 17.410156 9.921875 16.957031 10.460938 16.203125 C 10.628906 15.976562 10.773438 15.863281 10.914062 15.863281 C 11.058594 15.863281 11.199219 15.976562 11.371094 16.203125 C 11.9375 17 12.28125 17.453125 12.28125 18.023438 L 12.28125 17.679688 C 12.28125 17.113281 11.9375 16.65625 11.371094 15.863281 C 11.199219 15.636719 11.058594 15.519531 10.914062 15.519531 Z M 10.914062 15.519531 "/>
<path style="fill:none;stroke-width:11.338583;stroke-linecap:square;stroke-linejoin:bevel;stroke:rgb(12.941177%,12.941177%,12.941177%);stroke-opacity:1;stroke-miterlimit:4;" d="M 959.908384 1364.96636 C 947.540201 1364.96636 934.828458 1375.273178 920.055351 1395.199695 C 869.8955 1465.286062 838.287923 1505.482655 840.005726 1554.955385 L 840.005726 1685.851983 C 879.171637 1692.036074 919.02467 1695.128119 959.908384 1695.128119 C 1000.792098 1695.128119 1040.988691 1692.036074 1080.154602 1685.851983 L 1080.154602 1554.955385 C 1080.154602 1505.139094 1049.921267 1465.286062 1000.104977 1395.199695 C 984.988309 1375.273178 972.620127 1364.96636 959.908384 1364.96636 Z M 959.908384 1364.96636 " transform="matrix(0.0113699,0,0,0.0113699,0,0)"/>
<path style=" stroke:none;fill-rule:nonzero;fill:rgb(0%,0%,0%);fill-opacity:0.235294;" d="M 9.550781 17.59375 C 9.550781 17.625 9.550781 17.652344 9.550781 17.679688 Z M 9.550781 18.820312 L 9.550781 19.167969 C 9.996094 19.238281 10.449219 19.273438 10.914062 19.273438 C 11.378906 19.273438 11.835938 19.238281 12.28125 19.167969 L 12.28125 18.820312 C 11.835938 18.886719 11.378906 18.925781 10.914062 18.925781 C 10.449219 18.925781 9.996094 18.886719 9.550781 18.820312 Z M 9.550781 18.820312 "/>
<use xlink:href="#surface5" mask="url(#mask0)"/>
<use xlink:href="#surface8" mask="url(#mask1)"/>
<use xlink:href="#surface11" mask="url(#mask2)"/>
<use xlink:href="#surface14" mask="url(#mask3)"/>
</g>
</svg>
